X:2219
T:Brown Joak
B:Walsh
M:6/4
L:1/8
N:
K:Gm
GA| B3 A G2 d3 g ^f| g3 ab2 f2 d2 B2| f6 A4 G2| ^F2 f2 c2 =B2 g2 f2| \
b3 a g2 A2 B2 ^F2| G6 G,4::gf| g3 a b2 ^f2 d2 ^f2| g3 ab c'3 b a2| ^f6 e4 ^f2|\
g3 a b2 ^f2 d2 ^f2| g2 d2 B2 c2 d2 ^F2| G6 G,3:|


